icons/linear-ele-symbol-star.svg

<svg xmlns="http://www.w3.org/2000/svg" width="32px" height="32px" viewBox="0 0 32 32" version="1.1">
    <title>linear-ele-symbol-star</title>
    <g id="linear-ele-symbol-star" stroke-width="1" fill-rule="evenodd">
        <path d="M14.1838857,3.54981847 C14.6465304,2.54680622 15.8346802,2.10875184 16.8376925,2.57139662 C17.2698584,2.77073547 17.6167755,3.11765257 17.8161143,3.54981847 L20.906,10.248 L28.2306726,11.116438 C29.2777006,11.2405799 30.039433,12.1524881 29.9934052,13.1891392 L29.9812785,13.3380093 C29.9252426,13.8106225 29.7025081,14.2477636 29.353093,14.5708927 L23.937,19.579 L25.3750857,26.8139402 C25.5805691,27.848085 24.9486812,28.8543307 23.948544,29.1308985 L23.8032128,29.1653686 C23.3364148,29.2581209 22.8518402,29.1813718 22.436551,28.9489107 L15.999,25.345 L9.56344902,28.9489107 C8.64550302,29.4627375 7.49638062,29.1752023 6.92296582,28.3140487 L6.84137226,28.180602 C6.60891113,27.7653128 6.53216206,27.2807382 6.62491429,26.8139402 L8.062,19.579 L2.64690702,14.5708927 C1.87863269,13.8604145 1.7938101,12.6873481 2.42466866,11.876304 L2.53644395,11.7446235 C2.85957307,11.3952083 3.29671412,11.1724739 3.76932741,11.116438 L11.093,10.248 L14.1838857,3.54981847 Z M16,4.38751096 L12.6760034,11.5939239 C12.530336,11.9097302 12.2310509,12.1271736 11.8856875,12.1681219 L4.00481011,13.1025265 L9.83134463,18.4907393 C10.0866806,18.7268667 10.2009973,19.0786975 10.1332184,19.4198112 L8.58656495,27.203718 L15.511558,23.3274037 C15.8150316,23.1575321 16.1849684,23.1575321 16.488442,23.3274037 L23.4134351,27.203718 L21.8667816,19.4198112 C21.7990027,19.0786975 21.9133194,18.7268667 22.1686554,18.4907393 L27.9951899,13.1025265 L20.1143125,12.1681219 C19.7689491,12.1271736 19.469664,11.9097302 19.3239966,11.5939239 L16,4.38751096 Z" id="&#26143;&#24418;" fill-rule="nonzero" />
    </g>
</svg>

<svg xmlns="http://www.w3.org/2000/svg" viewBox="0 0 32 32"><path fill="currentColor" d="M14.184 3.55a2 2 0 0 1 3.632 0l3.09 6.698 7.325.868a2 2 0 0 1 1.762 2.073l-.012.149a2 2 0 0 1-.628 1.233l-5.416 5.008 1.438 7.235a2 2 0 0 1-1.426 2.317l-.146.034a2 2 0 0 1-1.366-.216l-6.438-3.604-6.436 3.604a2 2 0 0 1-2.64-.635l-.082-.133a2 2 0 0 1-.216-1.367l1.437-7.235-5.415-5.008a2 2 0 0 1-.222-2.695l.111-.131a2 2 0 0 1 1.233-.629l7.324-.868zM16 4.388l-3.324 7.206a1 1 0 0 1-.79.574l-7.881.935L9.83 18.49a1 1 0 0 1 .302.929l-1.546 7.784 6.925-3.877a1 1 0 0 1 .976 0l6.925 3.877-1.546-7.784a1 1 0 0 1 .302-.93l5.826-5.387-7.88-.935a1 1 0 0 1-.791-.574z"/></svg>
